X: 9
T: Combination March
C: Scott Joplin
%%abc-version 2.0
%%abcx-abcm2ps-target-version 5.9.1 (29 Sep 2008)
%%abc-creator hum2abc beta
%%abcx-conversion-date 2021/07/20 09:00:57
%%abc-copyright 2021 Craig Stuart Sapp
%%abc-edited-by Craig Stuart Sapp
%%abc-edited-by Craig Stuart Sapp
%%abcx-initial-encoding-date 2005/04/08
%%humdrum-veritas 786514583
%%humdrum-veritas-data 694036897
%%removed 0's from note length
%%linebreak <none>
%%barnumbers 0
L: 1/4
M: 4/4
N: Derived from combination.krn
Q: "Tempo di Marcia." 1/4=100
%%staves {1 2}
V: 1 clef=treble
V: 2 clef=bass
K: Bb
[V:1] F [I:setbarnb 1]| 
[V:2] z | 
[V:1] B2d2 & z[FD]z[BFD] | 
[V:2] [B,2B,,2][_A,2_A,,2] | 
[V:1] e2=e2 & z[BGE]z[^cB=E] | 
[V:2] [G,2G,,2][_G,2_G,,2] | 
[V:1] f2x2 & z[dBF]f/e/A | 
[V:2] [F,2F,,2][A2E2C2A,2] | 
[V:1] Bzzd ]|:  
[V:2] B,,[DB,F,]F,,[DB,F,] ]|:  
[V:1] e>dc3/d/ | 
[V:2] C,[EA,F,]F,,[EA,F,] | 
[V:1] efc2 | 
[V:2] C,[EA,F,]F,,[EA,F,] | 
[V:1] d>cB3/c/ | 
[V:2] B,,[DB,F,]F,,[DB,F,] | 
[V:1] dfF_A | 
[V:2] B,,[DB,F,]D,[DB,F,] | 
[V:1] G>BeG | 
[V:2] E,[EB,G,]E,[EB,G,] | 
[V:1] B>dfF | 
[V:2] D,[DB,F,]D,[DB,F,] | 
[V:1] f/e/de/d/c | 
[V:2] [F,F,,][DB,F,][F,F,,][EA,F,] | 
[V:1] B/F/^F/G/ A/B/c/d/ | 
[V:2] B,,[DB,F,]F,,[DB,F,] | 
[V:1] e>dc3/d/ | 
[V:2] C,[EA,F,]F,,[EA,F,] | 
[V:1] efc2 | 
[V:2] C,[EA,F,]F,,[EA,F,] | 
[V:1] d>cB3/c/ | 
[V:2] B,,[DB,F,]F,,[DB,F,] | 
[V:1] dfF_A | 
[V:2] B,,[DB,F,]D,[DB,F,] | 
[V:1] G>BeG | 
[V:2] E,[EB,G,]E,[EB,G,] | 
[V:1] B>dfF | 
[V:2] D,[DB,F,]D,[DB,F,] | 
[V:1] f/e/de/d/c |[1 
[V:2] [F,F,,][DB,F,][F,F,,][EA,F,] | 
[V:1] [BFD][BFD][BFD]d :|][2 
[V:2] [B,B,,]F,[B,B,,]z :|]  
[V:1] [BFD][B/F/D/][B/F/D/][BFD]z | 
[V:2] [B,B,,]F,[B,B,,]z | 
[V:1] [dB][dB][cA][cA] | 
[V:2] G,,/^F,,/G,,[D,2D,,2][K:clef=treble] | 
[V:1] g/^f/g[d'3/d3/][^c'/^c/] | 
[V:2] [BG][BG][A^F][AF][K:clef=bass] | 
[V:1] [d'd]zz2 | 
[V:2] z[D,D,,][E,E,,][=E,=E,,] | 
[V:1] z[d'a^fd][g'd'bg]z | 
[V:2] [F,F,,][^F,^F,,][G,G,,]z | 
[V:1] [cA][cA][BG][BG] | 
[V:2] =F,,/=E,,/F,,[C,2C,,2][K:clef=treble] | 
[V:1] =f/=e/f[c'3/c3/][=b/=B/] | 
[V:2] [AF][AF][G=E][GE][K:clef=bass] | 
[V:1] [c'c]zz2 | 
[V:2] z[C,C,,][^C,^C,,][D,D,,] | 
[V:1] z[c'g=ec][f'c'af]F ]|:  
[V:2] [E,E,,][=E,=E,,][F,F,,]z ]|:  
[V:1] [dB]F[dB]F | 
[V:2] [B,2F,2][B,2F,2] | 
[V:1] [ec]F[ec]F[K:clef=bass] | 
[V:2] [A,2F,2][A,2F,2] | 
[V:1] F,>B,G,^G, | 
[V:2] F,,>B,,G,,^G,, | 
[V:1] A,=G,F,[K:clef=treble]F | 
[V:2] A,,=G,,F,,z | 
[V:1] [dB]F[dB]F | 
[V:2] [B,2F,2][B,2F,2] | 
[V:1] [fd]F[fd]F | 
[V:2] [D2=B,2^G,2][D2B,2G,2] | 
[V:1] A,/B,/=B,/C/ ^C/D/E/=E/ | 
[V:2] A,,/B,,/=B,,/C,/ ^C,/D,/E,/=E,/ | 
[V:1] F[^c'g=e^c][d'afd]F | 
[V:2] F,[=E,=E,,][D,D,,]z | 
[V:1] [dB]F[dB]F | 
[V:2] [B,2F,2][B,2F,2] | 
[V:1] [ec]F[ec]F[K:clef=bass] | 
[V:2] [A,2F,2][A,2F,2] | 
[V:1] F,>B,G,^G, | 
[V:2] F,,>B,,G,,^G,, | 
[V:1] A,=G,F,[K:clef=treble][fBF] | 
[V:2] A,,=G,,F,,[D,D,,] | 
[V:1] [g2B2G2][beB][c'ec] | 
[V:2] [E,E,,][EB,G,][G,G,,][_G,_G,,] | 
[V:1] [d'2b2d2][f'd'f][=e'_d'=e] | 
[V:2] [F,F,,][DB,F,][F,F,,][G,G,,] | 
[V:1] [_e'2c'2_e2][geG][aeA] |[1 
[V:2] [A,A,,][ECA,F,][F,F,,][ECA,F,] | 
[V:1] [bfdB][bfdB][bfdB]F :|][2 
[V:2] [B,B,,]F,[B,B,,]z :|]  
[V:1] [bfdB][bfdB][bfdB]B, | 
[V:2] [B,B,,]F,[B,B,,]z | 
[V:1]  [K:Eb] B/B,/D/F/BB, | 
[V:2]  [K:Eb] z4 | 
[V:1] B/B,/E/G/B[b/B/][b/B/] | 
[V:2] z4[K:clef=treble] | 
[V:1] [bB][b/B/][b/B/][bB][b/B/][b/B/] | 
[V:2] [F2D2][G2E2] | 
[V:1] [b2B2]z/ B/e/g/ ]|:  
[V:2] [A2F2]z2[K:clef=bass] ]|:  
[V:1] [b2g2B2][c'2g2c2] | 
[V:2] [E,E,,][EB,G,][B,,B,,,][EB,G,] | 
[V:1] [bgB][b/g/B/][b/g/B/] [b/g/B/]B/e/g/ | 
[V:2] [E,E,,][EB,G,][B,,B,,,][EB,G,] | 
[V:1] [b2g2B2][c'2g2c2] | 
[V:2] [E,E,,][EB,G,][B,,B,,,][EB,G,] | 
[V:1] [badB][b/a/d/B/][b/a/d/B/] [b/a/d/B/]B/d/f/ | 
[V:2] [F,F,,][DB,A,][B,,B,,,][DB,A,] | 
[V:1] [b2a2d2B2][c'2a2c2] | 
[V:2] [F,F,,][DB,A,][B,,B,,,][DB,A,] | 
[V:1] [badB][b/a/d/B/][b/a/d/B/] [b/a/d/B/][b/B/][c'/c/][^c'/^c/] | 
[V:2] [F,F,,][DB,A,][B,,B,,,][DB,A,] | 
[V:1] [d'2b2d2][c'2a2c2] | 
[V:2] [F,F,,][DB,A,][D,D,,][DB,A,] | 
[V:1] [bgB][b/g/B/][b/g/B/] [b/g/B/]B/e/g/ | 
[V:2] [E,E,,][EB,G,][B,,B,,,][EB,G,] | 
[V:1] [b2g2B2][c'2g2c2] | 
[V:2] [E,E,,][EB,G,][B,,B,,,][EB,G,] | 
[V:1] [bgB][b/g/B/][b/g/B/] [b/g/B/]B/e/g/ | 
[V:2] [E,E,,][EB,G,][E,E,,][EB,G,] | 
[V:1] [b2g2B2][c'2_g2c2] | 
[V:2] [G,G,,][EB,G,][_G,_G,,][EB,G,] | 
[V:1] [d'bd][d'/b/d/][d'/b/d/][d'bd]d'/e'/ | 
[V:2] [F,F,,][DB,F,][DB,F,][DB,F,] | 
[V:1] f'e'/c'/=af | 
[V:2] =A,,[EC=A,F,]F,,[ECA,F,] | 
[V:1] g'f'/d'/bf | 
[V:2] B,,[DB,F,]D,[DB,F,] | 
[V:1] f'e'/c'/=af |[1 
[V:2] =A,,[EC=A,F,]F,,[ECA,F,] | 
[V:1] b[b/f/d/][b/f/d/] [b/f/d/]B/e/g/ :|][2 
[V:2] [B,B,,]F,[B,B,,]z :|]  
[V:1] b[b/f/d/][b/f/d/][bfd]B ]|: 
[V:2] [B,B,,]D,[B,B,,]z ]|:  
[V:1] F>G[AF][dAF] | 
[V:2] [D,D,,][DB,A,][B,,B,,,][DB,A,] | 
[V:1] [c3A3F3]z | 
[V:2] [D,D,,][DB,A,][B,,B,,,][DB,A,] | 
[V:1] G>A[BG][eG] | 
[V:2] [E,E,,][EB,G,][B,,B,,,][EB,G,] | 
[V:1] [c3G3]z | 
[V:2] [E,E,,][EB,G,][B,,B,,,][EB,G,] | 
[V:1] [a/d/A/][a/d/A/][adA][a3/d3/A3/][f/F/] | 
[V:2] [F,F,,][DB,A,][B,,B,,,][DB,A,] | 
[V:1] [eE][gG][b2B2] | 
[V:2] [E,E,,][EB,G,][E,E,,][EB,G,] | 
[V:1] [a/d/A/][a/d/A/][adA][a3/d3/A3/][^f/^F/] | 
[V:2] [F,F,,][DB,A,][B,,B,,,][DB,A,] | 
[V:1] [g/G/][e'/e/][d'/d/][c'/c/][bB]B | 
[V:2] [E,E,,][EB,G,][E,E,,][EB,G,] | 
[V:1] F>G[AF][dAF] | 
[V:2] [D,D,,][DB,A,][B,,B,,,][DB,A,] | 
[V:1] [c3A3F3]z | 
[V:2] [D,D,,][DB,A,][B,,B,,,][DB,A,] | 
[V:1] G>A[BG][eG] | 
[V:2] [E,E,,][EB,G,][B,,B,,,][EB,G,] | 
[V:1] [c3G3]z | 
[V:2] [E,E,,][EB,G,][E,E,,][EB,G,] | 
[V:1] [e'/e/][e'/e/][e'e][e'3/e3/][=a/=A/] | 
[V:2] [_C,_C,,][E=A,^F,][C,C,,][EA,F,] | 
[V:1] [bB][c'c][b2B2] | 
[V:2] [B,,B,,,][EB,G,][G,,G,,,][EB,G,] | 
[V:1] [a/d/A/][a/d/A/][adA][a3/d3/A3/][f/F/] |[1 
[V:2] [B,,B,,,][DB,A,][B,,B,,,][DB,A,] | 
[V:1] [e/E/]B,/=B,/C/ ^C/D/E/=E/ :|][2 
[V:2] [E,E,,]zz2 :|]  
[V:1] [eBGE]z[e'bge] |]  
[V:2] [E,E,,]z[E,E,,] |]  


